X:44
T:French Waltzes - Emma and En Avant Blonde
M:3/4
L:1/8
K:EMin
"Em"B3 c BA | "Em"G2 E2 G2 | "Em"B3 c BA | "Em"G2 E2 G2 |
"Bm"F4 G2 | "D"A2 G2 F2 |1 "Em"E3 F GA |B6 :|2 "Em"E3 F GF | E6 ||
"Em"e3 e e2 | "C"e2 d2 c2 | "Em"B3 c Bc | "Em"B2 A2 G2 |
"Bm"F4 G2 | "D"A2 G2 F2 |1 "Em"E3 F GA |B6 :|2 "Em"E3 F GF | E6 ||
K:Am
"Am"A2 c2 d2 | "Am"e4 e2 | "G"G2 B2 c2 | "G"d4 d2 |
"G"d2 c2 B2 | "Am"A4 c2 | "G"B4 G2 | "Am"A6:|
"Am"e2 edcd | "Am"e2 c2 A2 | "G"d2 dcBc | "G"d2 B2 G2 |
"Am"e2 edcd | "Am"e2 c2 A2 | "G"d2 B2 G2 | "Am"A6:|
